images/arrow-right.svg

<svg width="14" height="15" viewBox="0 0 14 15" fill="none" xmlns="http://www.w3.org/2000/svg">
<path d="M13.7762 7.84521L8.72031 13.1035C8.57599 13.2535 8.38364 13.3359 8.17853 13.3359C7.9732 13.3359 7.78096 13.2534 7.63663 13.1035L7.1776 12.6259C7.03339 12.4761 6.95394 12.2759 6.95394 12.0625C6.95394 11.8492 7.03339 11.6423 7.1776 11.4924L10.1271 8.41813L0.756332 8.41813C0.333833 8.41813 -1.42512e-06 8.07414 -1.54416e-06 7.63462L-1.727e-06 6.95954C-1.84604e-06 6.52002 0.333832 6.14135 0.756332 6.14135L10.1606 6.14135L7.17771 3.04992C7.0335 2.89982 6.95405 2.7051 6.95405 2.49167C6.95405 2.27848 7.0335 2.08092 7.17771 1.93094L7.63675 1.45496C7.78107 1.30487 7.97331 1.22307 8.17864 1.22307C8.38375 1.22307 8.5761 1.30593 8.72042 1.45603L13.7763 6.71415C13.921 6.86472 14.0005 7.06572 14 7.27938C14.0004 7.49376 13.921 7.69487 13.7762 7.84521Z" fill="#232732"/>
</svg>

<svg width="14" height="15" fill="none" xmlns="http://www.w3.org/2000/svg"><path d="M13.776 7.845L8.72 13.104a.746.746 0 01-1.083 0l-.46-.478a.807.807 0 01-.223-.563c0-.214.08-.42.224-.57l2.95-3.075H.755C.334 8.418 0 8.074 0 7.635V6.96c0-.44.334-.819.756-.819h9.405L7.178 3.05a.795.795 0 01-.224-.558c0-.214.08-.411.224-.561l.459-.476a.745.745 0 011.083.001l5.056 5.258c.145.15.225.352.224.565a.808.808 0 01-.224.566z" fill="#232732"/></svg>
